X: 6302
T: Carramore, The
R: polka
M: 2/4
K: Gmajor
d>c BA|BG ED|DG BG|dB A2|
d>c BA|BG ED|DF A>B|AG G2:|
Bd ef|g2gd|ed BA|BG ED|
Bd ef|g2gd|ed BA|Be e2|
Bd ef|g2 gd|ed BA|BG ED|
d>c BA|BG ED|DF A>B|AG G2||

